src/images/svg/symbols/z_cash_flag.svg

<svg width="33" height="32" viewBox="0 0 33 32" fill="none" xmlns="http://www.w3.org/2000/svg">
<path d="M0.5 16C0.5 7.16344 7.66344 0 16.5 0C25.3366 0 32.5 7.16344 32.5 16C32.5 24.8366 25.3366 32 16.5 32C7.66344 32 0.5 24.8366 0.5 16Z" fill="#F4B728"/>
<path d="M13.6549 19.7298V18.5067L17.0469 13.9094H13.6549V12.2881H15.8416V10.9512H17.1856V12.2881H19.3723V13.5112L15.9803 18.1121H19.3723V19.7298H17.1856V21.0703H15.8416V19.7298H13.6549Z" fill="#231F20"/>
<path fill-rule="evenodd" clip-rule="evenodd" d="M8.5 16C8.5 11.5883 12.0883 8 16.5 8C20.9117 8 24.5 11.5883 24.5 16C24.5 20.4117 20.9117 24 16.5 24C12.0883 24 8.5 20.4117 8.5 16ZM9.82032 16C9.82032 19.6841 12.8159 22.6797 16.5 22.6797C20.1841 22.6797 23.1797 19.6841 23.1797 16C23.1797 12.3159 20.1841 9.32032 16.5 9.32032C12.8159 9.32032 9.82032 12.3159 9.82032 16Z" fill="#231F20"/>
</svg>

<svg width="33" height="32" fill="none" xmlns="http://www.w3.org/2000/svg"><path d="M.5 16c0-8.837 7.163-16 16-16s16 7.163 16 16-7.163 16-16 16-16-7.163-16-16Z" fill="#F4B728"/><path d="M13.655 19.73v-1.223l3.392-4.598h-3.392v-1.62h2.187V10.95h1.344v1.337h2.186v1.223l-3.392 4.601h3.392v1.618h-2.186v1.34h-1.344v-1.34h-2.187Z" fill="#231F20"/><path fill-rule="evenodd" clip-rule="evenodd" d="M8.5 16c0-4.412 3.588-8 8-8s8 3.588 8 8-3.588 8-8 8-8-3.588-8-8Zm1.32 0a6.686 6.686 0 0 0 6.68 6.68A6.686 6.686 0 0 0 23.18 16a6.686 6.686 0 0 0-6.68-6.68A6.686 6.686 0 0 0 9.82 16Z" fill="#231F20"/></svg>
